X: 3569
T: Big Shed, The
R: reel
M: 4/4
K: Gmajor
|:d^cAF G2 FG|AD D2 FGA=c|BG G2 FGAc|Addf e2 fe|
d^cAF G2 FG|AD D2 FGA=c|BG G2 DGBd|cAFA AG G2:|
|:df f2 dfaf|gfed ^ce e2|df f2 dfaf|ge^cA Ad d2|
d^cAF G2 FG|AD D2 FGA=c|BG G2 DGBd|cAFD AG G2:|

